configs/network-icons/camp-network-icon-dark.svg

<svg xmlns="http://www.w3.org/2000/svg" fill="none" viewBox="0 0 392 420">
  <path fill="#fff" d="m386.03 296.547-45.351-35.367c-7.615-5.938-18.697-3.477-23.179 5.086-11.131 21.237-28.574 38.734-48.559 50.672l-47.531-47.662a13.619 13.619 0 0 0-9.643-4.006 13.619 13.619 0 0 0-9.643 4.006l-50.567 50.707C112.237 299.097 85.384 257.641 85.384 210c0-68.582 55.645-124.38 124.039-124.38 41.362 0 80.991 18.06 107.186 61.468 4.694 7.78 15.023 9.848 22.336 4.474l44.008-32.343c6.531-4.797 8.265-13.848 3.961-20.727C348.739 37.387 281.984 0 209.423 0 93.944 0 0 94.203 0 210s93.944 210 209.423 210c39.477 0 77.941-11.086 111.243-32.047a210.436 210.436 0 0 0 69.175-71.262c3.961-6.722 2.344-15.354-3.804-20.144h-.007ZM179.445 330.69l32.315-32.404L242.389 329c-10.911 3.505-22.069 5.381-32.966 5.381a123.572 123.572 0 0 1-29.978-3.684v-.007Zm29.032-152.888c-.048 1.024-.055 14.632 33.954 37.875 25.372 17.346 13.488 51.902 8.293 63.262a101.193 101.193 0 0 0-13.79-26.741 101.23 101.23 0 0 0-25.181-24.46c-7.114 4.371-18.786 12.88-28.148 27.505a87.423 87.423 0 0 0-10.569 23.696l-.02-.034c-10.349-27.903-6.683-41.841-1.337-49.414 4.195-5.945 11.816-14.158 11.816-14.158 6.655-6.639 13.68-13.099 20.438-26.233 4.153-8.075 4.517-10.886 4.544-11.305v.007Z"/>
  <path fill="#FF6D01" d="M183.393 215.477s-7.639 8.207-11.853 14.147c-5.363 7.568-9.035 21.495 1.34 49.376-59.144-51.711 1.761-104.486.544-100.469-4.525 14.937 9.962 36.946 9.962 36.946h.007Zm14.425-16.255a84.08 84.08 0 0 0 6.051-9.992c4.552-8.81 4.565-11.358 4.565-11.358s-1.437 13.748 34.055 37.914c25.454 17.333 13.532 51.862 8.32 63.214 0 0 30.04-19.132 25.777-51.45-5.123-38.876-26.183-35.367-41.832-64.161-14.597-26.858 10.334-48.374 10.334-48.374s-33.374-1.792-48.652 33.252c-16.102 36.925 1.375 50.962 1.375 50.962l.007-.007Z"/>
</svg>

<svg width="392" height="420" viewBox="0 0 392 420" fill="none" xmlns="http://www.w3.org/2000/svg">
<path d="M386.03 296.547L340.679 261.18C333.064 255.242 321.982 257.703 317.5 266.266C306.369 287.503 288.926 305 268.941 316.938L221.41 269.276C218.854 266.713 215.386 265.27 211.767 265.27C208.148 265.27 204.68 266.713 202.124 269.276L151.557 319.983C112.237 299.097 85.3839 257.641 85.3839 210C85.3839 141.418 141.029 85.6192 209.423 85.6192C250.785 85.6192 290.414 103.68 316.609 147.088C321.303 154.868 331.632 156.936 338.945 151.562L382.953 119.219C389.484 114.422 391.218 105.371 386.914 98.4916C348.739 37.3871 281.984 0 209.423 0C93.9442 0 0 94.2031 0 210C0 325.797 93.9442 420 209.423 420C248.9 420 287.364 408.914 320.666 387.953C349.13 370.029 372.83 345.569 389.841 316.691C393.802 309.969 392.185 301.337 386.037 296.547H386.03ZM179.445 330.69L211.76 298.286L242.389 329C231.478 332.505 220.32 334.381 209.423 334.381C199.087 334.381 189.054 333.096 179.445 330.697V330.69ZM208.477 177.802C208.429 178.826 208.422 192.434 242.431 215.677C267.803 233.023 255.919 267.579 250.724 278.939C248.325 271.867 244.192 262.246 236.934 252.198C228.209 240.109 218.518 232.336 211.753 227.738C204.639 232.109 192.967 240.618 183.605 255.243C177.937 264.101 174.818 272.534 173.036 278.939L173.016 278.905C162.667 251.002 166.333 237.064 171.679 229.491C175.874 223.546 183.495 215.333 183.495 215.333C190.15 208.694 197.175 202.234 203.933 189.1C208.086 181.025 208.45 178.214 208.477 177.795V177.802Z" fill="white"/>
<path d="M183.393 215.477C183.393 215.477 175.754 223.684 171.54 229.624C166.177 237.192 162.505 251.119 172.88 279C113.736 227.289 174.641 174.514 173.424 178.531C168.899 193.468 183.386 215.477 183.386 215.477H183.393ZM197.818 199.222C199.888 196.29 201.923 193.001 203.869 189.23C208.421 180.42 208.434 177.872 208.434 177.872C208.434 177.872 206.997 191.62 242.489 215.786C267.943 233.119 256.021 267.648 250.809 279C250.809 279 280.849 259.868 276.586 227.55C271.463 188.674 250.403 192.183 234.754 163.389C220.157 136.531 245.088 115.015 245.088 115.015C245.088 115.015 211.714 113.223 196.436 148.267C180.334 185.192 197.811 199.229 197.811 199.229L197.818 199.222Z" fill="#FF6D01"/>
</svg>
